**kern	**kern	**kern	**kern	**kern
*MM76	*MM76	*MM76	*MM76	*MM76
*k[b-]	*k[b-]	*k[b-]	*k[b-]	*k[b-]
*M4/4	*M4/4	*M4/4	*M4/4	*M4/4
*tb32	*tb32	*tb32	*tb32	*tb32
=1	=1	=1	=1	=1
1r	1r	1r	1r	4cc
.	.	.	.	16r
.	.	.	.	16cc
.	.	.	.	16dd
.	.	.	.	16cc
.	.	.	.	16b-
.	.	.	.	16cc
.	.	.	.	16a
.	.	.	.	16b-
.	.	.	.	16g
.	.	.	.	16b-
.	.	.	.	16a
.	.	.	.	16g
=2	=2	=2	=2	=2
1r	1r	1r	4r	8a
.	.	.	.	8f
.	.	.	2c	8r
.	.	.	.	8cc
.	.	.	.	8dd
.	.	.	.	8dd
.	.	.	[4B-	8dd
.	.	.	.	16ee
.	.	.	.	16dd
=3	=3	=3	=3	=3
1r	1r	1r	4B-]	8cc
.	.	.	.	8cc
.	.	.	2A	8cc
.	.	.	.	8f
.	.	.	.	8b-
.	.	.	.	8b-
.	.	.	[4G	8b-
.	.	.	.	16cc
.	.	.	.	16b-
=4	=4	=4	=4	=4
1r	1r	1r	4G]	8a
.	.	.	.	8a
.	.	.	2F	8a
.	.	.	.	8d
.	.	.	.	16g
.	.	.	.	16f
.	.	.	.	16g
.	.	.	.	16a
.	.	.	8E	16g
.	.	.	.	16a
.	.	.	8F	16f
.	.	.	.	16g
=5	=5	=5	=5	=5
1r	1r	1r	8c	8e
.	.	.	8B-	8c
.	.	.	8A	8f
.	.	.	8G	8b-
.	.	.	8F	4a
.	.	.	8B-	.
.	.	.	8c	4gT
.	.	.	8C	.
=6	=6	=6	=6	=6
1r	2r	1r	4F	16f
.	.	.	.	16g
.	.	.	.	16a
.	.	.	.	16b-
.	.	.	8r	16cc
.	.	.	.	16a
.	.	.	16f	16dd
.	.	.	16e	16cc
.	4G	.	4d	8b
.	.	.	.	8g
.	16r	.	4e	[4cc
.	16G	.	.	.
.	16A	.	.	.
.	16G	.	.	.
=7	=7	=7	=7	=7
2GG	16F	1r	2d	4cc]
.	16G	.	.	.
.	16E	.	.	.
.	16F	.	.	.
.	16D	.	.	4b
.	16F	.	.	.
.	16E	.	.	.
.	16D	.	.	.
2CC	8E	.	8c	4cc
.	8C	.	16gg	.
.	.	.	16ff	.
.	8r	.	16ee	[4gg
.	.	.	16dd	.
.	8G	.	16cc	.
.	.	.	16b	.
=8	=8	=8	=8	=8
4FF	8A	1r	16cc	4gg]
.	.	.	16b	.
.	8A	.	16cc	.
.	.	.	16dd	.
4D	8A	.	16cc	2ff
.	.	.	16ee	.
.	16B	.	16dd	.
.	16A	.	16cc	.
4EE	8G	.	16b	.
.	.	.	16a	.
.	8G	.	16b	.
.	.	.	16cc	.
4C	8G	.	16b	[4ee
.	.	.	16dd	.
.	8C	.	16cc	.
.	.	.	16b	.
=9	=9	=9	=9	=9
4DD	8F	1r	16a	4ee]
.	.	.	16g	.
.	8F	.	16a	.
.	.	.	16b	.
4BB	8F	.	16a	2dd
.	.	.	16cc	.
.	16G	.	16b	.
.	16F	.	16a	.
4CC	8E	.	16g	.
.	.	.	16f	.
.	8E	.	16g	.
.	.	.	16a	.
4C	8E	.	16g	[4cc
.	.	.	16b	.
.	8AA	.	16a	.
.	.	.	16g	.
=10	=10	=10	=10	=10
4FF	16D	1r	16f	4cc]
.	16C	.	16e	.
.	16D	.	16f	.
.	16E	.	16g	.
8GG	16D	.	8f	8b
.	16E	.	.	.
8CC	16C	.	8e	8cc
.	16D	.	.	.
4GG	8BB	.	4f	4dd
.	8GG	.	.	.
4r	4C	.	4e	8r
.	.	.	.	8cc
=11	=11	=11	=11	=11
1r	4c	2r	4f	16dd
.	.	.	.	16cc
.	.	.	.	16dd
.	.	.	.	16ee
.	2B-	.	2g	16dd
.	.	.	.	16ee
.	.	.	.	16ff
.	.	.	.	16dd
.	.	4c	.	8ee
.	.	.	.	8cc
.	4A	16r	4a	[4ff
.	.	16c	.	.
.	.	16d	.	.
.	.	16c	.	.
=12	=12	=12	=12	=12
2r	4G	16B-	2cc	4ff]
.	.	16c	.	.
.	.	16A	.	.
.	.	16B-	.	.
.	4C	16G	.	4ee
.	.	16B-	.	.
.	.	16A	.	.
.	.	16G	.	.
4r	4F	8A	2f	8ff
.	.	8F	.	16ccc
.	.	.	.	16bb-
[4C	4r	8r	.	16aa
.	.	.	.	16gg
.	.	8c	.	16ff
.	.	.	.	16ee
=13	=13	=13	=13	=13
4C]	1r	8d	4B-	16ff
.	.	.	.	16ee
.	.	8d	.	16ff
.	.	.	.	16gg
2BB-	.	8d	4g	16ff
.	.	.	.	16aa
.	.	16e	.	16gg
.	.	16d	.	16ff
.	.	8c	4A	16ee
.	.	.	.	16dd
.	.	8c	.	16ee
.	.	.	.	16ff
[4AA	.	8c	4f	16ee
.	.	.	.	16gg
.	.	8F	.	16ff
.	.	.	.	16ee
=14	=14	=14	=14	=14
4AA]	1r	8B-	4G	16dd
.	.	.	.	16cc
.	.	8B-	.	16dd
.	.	.	.	16ee
2GG	.	8B-	4e	16dd
.	.	.	.	16ff
.	.	16c	.	16ee
.	.	16B-	.	16dd
.	.	8A	4F	16cc
.	.	.	.	16b-
.	.	8A	.	16cc
.	.	.	.	16dd
[4FF	.	8A	[4d	16cc
.	.	.	.	16ee
.	.	8D	.	16dd
.	.	.	.	16cc
=15	=15	=15	=15	=15
4FF]	1r	16G	4d]	16b-
.	.	16F	.	16a
.	.	16G	.	16b-
.	.	16A	.	16cc
8C	.	16G	8e	16b-
.	.	16A	.	16cc
8FF	.	16F	8f	16a
.	.	16G	.	16b-
4CC	.	4E	8g	4g
.	.	.	16c	.
.	.	.	16B	.
4r	.	8r	[4c	8r
.	.	8C	.	8gg
=16	=16	=16	=16	=16
1r	1r	4D	4c]	16ff
.	.	.	.	16gg
.	.	.	.	16ee
.	.	.	.	16ff
.	.	4G	4B	16dd
.	.	.	.	16ff
.	.	.	.	16ee
.	.	.	.	16dd
.	.	4C	4c	8ee
.	.	.	.	8cc
.	.	8r	16r	[4ccc
.	.	.	16gg	.
.	.	8e	16aa	.
.	.	.	16gg	.
=17	=17	=17	=17	=17
2r	1r	4d	16ff	4ccc]
.	.	.	16gg	.
.	.	.	16ee	.
.	.	.	16ff	.
.	.	4g	16dd	4bb
.	.	.	16ff	.
.	.	.	16ee	.
.	.	.	16dd	.
4r	.	4c	8ee	4ccc
.	.	.	8cc	.
4AA	.	8r	[4ff	8r
.	.	8c	.	8ccc
=18	=18	=18	=18	=18
4GG	1r	8d	4ff]	16bb-
.	.	.	.	16ccc
.	.	8d	.	16aa
.	.	.	.	16bb-
4C	.	8d	2ee	16gg
.	.	.	.	16bb-
.	.	16e	.	16ccc
.	.	16d	.	16bb-
4FF	.	8c	.	16aa
.	.	.	.	16bb-
.	.	8c	.	16gg
.	.	.	.	16aa
4BB-	.	8c	[4dd	16ff
.	.	.	.	16aa
.	.	8F	.	16bb-
.	.	.	.	16aa
=19	=19	=19	=19	=19
4EE	1r	8B-	4dd]	16gg
.	.	.	.	16aa
.	.	8B-	.	16ff
.	.	.	.	16gg
4AA	.	8B-	2cc	16ee
.	.	.	.	16gg
.	.	16c	.	16aa
.	.	16B-	.	16gg
4DD	.	8A	.	16ff
.	.	.	.	16gg
.	.	8A	.	16ee
.	.	.	.	16ff
4GG	.	8A	[4b-	16dd
.	.	.	.	16ff
.	.	8D	.	16gg
.	.	.	.	16ff
=20	=20	=20	=20	=20
4CC	1r	4G	4b-]	8ee
.	.	.	.	8cc
8r	.	4A	8r	2ff
8C	.	.	8cc	.
8D	.	4G	16b-	.
.	.	.	16cc	.
8D	.	.	16a	.
.	.	.	16b-	.
8D	.	4c	16g	[4ee
.	.	.	16b-	.
16E	.	.	16cc	.
16D	.	.	16b-	.
=21	=21	=21	=21	=21
8C	1r	4F	16a	4ee]
.	.	.	16b-	.
8C	.	.	16g	.
.	.	.	16a	.
8C	.	4B-	16f	2dd
.	.	.	16a	.
8FF	.	.	16b-	.
.	.	.	16a	.
8BB-	.	4E	16g	.
.	.	.	16a	.
8BB-	.	.	16f	.
.	.	.	16g	.
8BB-	.	4A	16e	4cc#
.	.	.	16g	.
16AA	.	.	16f	.
16GG	.	.	16e	.
=22	=22	=22	=22	=22
8AA	1r	4D	8f	4dd
8DD	.	.	8d	.
2A	.	4r	8r	4r
.	.	.	8a	.
.	.	2r	16b	2r
.	.	.	16a	.
.	.	.	16b	.
.	.	.	16cc	.
[4G	.	.	16b	.
.	.	.	16cc#	.
.	.	.	16dd	.
.	.	.	16b	.
=23	=23	=23	=23	=23
4G]	1r	1r	8cc#	4aa
.	.	.	8a	.
4F	.	.	2dd	16r
.	.	.	.	16aa
.	.	.	.	16bb-
.	.	.	.	16aa
4E	.	.	.	16gg
.	.	.	.	16aa
.	.	.	.	16ff
.	.	.	.	16gg
4A	.	.	[4cc	16ee
.	.	.	.	16gg
.	.	.	.	16ff#
.	.	.	.	16ee
=24	=24	=24	=24	=24
1D	4r	1r	4cc]	8ff#
.	.	.	.	8dd
.	4BB	.	16r	[4gg
.	.	.	16dd	.
.	.	.	16ee	.
.	.	.	16dd	.
.	4AA	.	16cc	4gg]
.	.	.	16dd	.
.	.	.	16b	.
.	.	.	16cc	.
.	4D	.	16a	[4ff
.	.	.	16cc	.
.	.	.	16b	.
.	.	.	16a	.
=25	=25	=25	=25	=25
4G	1GG	1r	8b	4ff]
.	.	.	8g	.
4E	.	.	2cc	16r
.	.	.	.	16gg
.	.	.	.	16aa
.	.	.	.	16gg
4D	.	.	.	16ff
.	.	.	.	16gg
.	.	.	.	16ee
.	.	.	.	16ff
4G	.	.	[4b-	16dd
.	.	.	.	16ff
.	.	.	.	16ee
.	.	.	.	16dd
=26	=26	=26	=26	=26
1C	4C	1r	4b-]	8ee
.	.	.	.	8cc
.	4AA	.	16r	2ff
.	.	.	16cc	.
.	.	.	16dd	.
.	.	.	16cc	.
.	4GG	.	16b-	.
.	.	.	16cc	.
.	.	.	16a	.
.	.	.	16b-	.
.	4C	.	16g	[4ee-
.	.	.	16b-	.
.	.	.	16a	.
.	.	.	16g	.
=27	=27	=27	=27	=27
4F	4FF	1r	8a	4ee-]
.	.	.	8f	.
4D	8r	.	2b-	16r
.	.	.	.	16ff
.	8F	.	.	16gg
.	.	.	.	16ff
4C	8G	.	.	16ee-
.	.	.	.	16ff
.	8G	.	.	16dd
.	.	.	.	16ee-
4F	8G	.	[4a	16cc
.	.	.	.	16ee-
.	16A	.	.	16ff
.	16G	.	.	16ee-
=28	=28	=28	=28	=28
4BB-	8F	1r	4a]	16dd
.	.	.	.	16ee-
.	8F	.	.	16cc
.	.	.	.	16dd
4E-	8F	.	2g	16b-
.	.	.	.	16dd
.	16G	.	.	16ee-
.	16F	.	.	16dd
4AA	8E-	.	.	16cc
.	.	.	.	16dd
.	8E-	.	.	16b-
.	.	.	.	16cc
4D	8E-	.	4f#	16a
.	.	.	.	16cc
.	16D	.	.	16b-
.	16C	.	.	16a
=29	=29	=29	=29	=29
4GG	8D	1r	4g	8b-
.	8GG	.	.	8g
4r	8r	.	4r	2dd
.	8D	.	.	.
2r	16E	.	2r	.
.	16D	.	.	.
.	16E	.	.	.
.	16F#	.	.	.
.	16E	.	.	[4cc
.	16F#	.	.	.
.	16G	.	.	.
.	16E	.	.	.
=30	=30	=30	=30	=30
1r	8F#	1r	4d	4cc]
.	8D	.	.	.
.	2G	.	16r	4b-
.	.	.	16d	.
.	.	.	16e-	.
.	.	.	16d	.
.	.	.	16c	4a
.	.	.	16d	.
.	.	.	16B-	.
.	.	.	16c	.
.	[4F	.	16A	4dd
.	.	.	16c	.
.	.	.	16B	.
.	.	.	16A	.
=31	=31	=31	=31	=31
1r	4F]	1r	8B	4gg
.	.	.	8G	.
.	4E-	.	2c	16r
.	.	.	.	16gg
.	.	.	.	16aa-
.	.	.	.	16gg
.	4D	.	.	16ff
.	.	.	.	16gg
.	.	.	.	16ee-
.	.	.	.	16ff
.	4G	.	4B	16dd
.	.	.	.	16ff
.	.	.	.	16ee-
.	.	.	.	16dd
=32	=32	=32	=32	=32
1r	4C	1r	4c	8ee-
.	.	.	.	8cc
.	4r	.	2g	8r
.	.	.	.	8gg
.	4F	.	.	8aa-
.	.	.	.	8aa-
.	4d	.	[4f	8aa-
.	.	.	.	16bb-
.	.	.	.	16aa-
=33	=33	=33	=33	=33
1r	4E-	1r	4f]	8gg
.	.	.	.	8gg
.	4c	.	2e-	8gg
.	.	.	.	8cc
.	4D	.	.	8ff
.	.	.	.	8ff
.	4B	.	[4d	8ff
.	.	.	.	16gg
.	.	.	.	16ff
=34	=34	=34	=34	=34
1r	4C	1r	4d]	16ee-
.	.	.	.	16dd
.	.	.	.	16ee-
.	.	.	.	16ff
.	4A-	.	2c	16ee-
.	.	.	.	16gg
.	.	.	.	16ff
.	.	.	.	16ee-
.	4BB-	.	.	16dd
.	.	.	.	16cc
.	.	.	.	16dd
.	.	.	.	16ee-
.	4G	.	[4B-	16dd
.	.	.	.	16ff
.	.	.	.	16ee-
.	.	.	.	16dd
=35	=35	=35	=35	=35
1r	4AA-	1r	4B-]	16cc
.	.	.	.	16b
.	.	.	.	16cc
.	.	.	.	16dd
.	4F	.	4A-	16cc
.	.	.	.	16ee-
.	.	.	.	16dd
.	.	.	.	16cc
.	4GG	.	4G	8b
.	.	.	.	8g
.	8r	.	4gg	4r
.	8e-	.	.	.
=36	=36	=36	=36	=36
1r	4f	1r	16gg	[4aa
.	.	.	16gg	.
.	.	.	16ff	.
.	.	.	16ee-	.
.	4d	.	2ff	16aa]
.	.	.	.	16aa
.	.	.	.	16bb
.	.	.	.	16ccc
.	4g	.	.	8bb
.	.	.	.	8gg
.	4c	.	16r	[4ccc
.	.	.	16ee-	.
.	.	.	16dd	.
.	.	.	16cc	.
=37	=37	=37	=37	=37
1r	4g	1r	[4dd	16ccc]
.	.	.	.	16ccc
.	.	.	.	16ddd
.	.	.	.	16aa
.	4G	.	16dd]	[4bb-
.	.	.	16dd	.
.	.	.	16ee	.
.	.	.	16ff	.
.	4c	.	8ee	16bb-]
.	.	.	.	16bb-
.	.	.	8cc	16ccc
.	.	.	.	16gg
.	4f	.	16r	[4aa-
.	.	.	16cc	.
.	.	.	16dd	.
.	.	.	16ee-	.
=38	=38	=38	=38	=38
1r	4B-	1r	[4dd	16aa-]
.	.	.	.	16aa-
.	.	.	.	16bb-
.	.	.	.	16ff
.	4e-	.	16dd]	[4gg
.	.	.	16dd	.
.	.	.	16ee-	.
.	.	.	16b-	.
.	[2A-	.	8.cc	16gg]
.	.	.	.	16gg
.	.	.	.	16aa-
.	.	.	16b-	16gg
.	.	.	16a-	16ff
.	.	.	16g	16ee-
.	.	.	16f	16dd
.	.	.	16e-	16cc
=39	=39	=39	=39	=39
4B-	4A-]	4r	8f	8dd
.	.	.	8d	8b-
4G	4G	[4e-	16r	2ee-
.	.	.	16b-	.
.	.	.	16cc	.
.	.	.	16g	.
4F	2F	16e-]	[4a-	.
.	.	16e-	.	.
.	.	16f	.	.
.	.	16c	.	.
4B-	.	[4d	16a-]	[4ff
.	.	.	16a-	.
.	.	.	16b-	.
.	.	.	16f	.
=40	=40	=40	=40	=40
4E-	2E-	16d]	[4g	4ff]
.	.	16d	.	.
.	.	16e-	.	.
.	.	16B-	.	.
4A-	.	[4c	16g]	2ee-
.	.	.	16g	.
.	.	.	16a-	.
.	.	.	16e-	.
4D	2D	16c]	[4f	.
.	.	16c	.	.
.	.	16d	.	.
.	.	16A-	.	.
4G	.	[4B-	16f]	[4dd
.	.	.	16f	.
.	.	.	16g	.
.	.	.	16d	.
=41	=41	=41	=41	=41
4C	4C	16B-]	[4e-	4dd]
.	.	16B-	.	.
.	.	16c	.	.
.	.	16G	.	.
4F	4F	2A-	16e-]	4cc
.	.	.	16e-	.
.	.	.	16f	.
.	.	.	16c	.
[2BB-	[2BB-	.	8d	4b-
.	.	.	8B-	.
.	.	4G	[4e-	16r
.	.	.	.	16b-
.	.	.	.	16cc
.	.	.	.	16b-
=42	=42	=42	=42	=42
2BB-]	2BB-]	4F	4e-]	16a-
.	.	.	.	16b-
.	.	.	.	16g
.	.	.	.	16a-
.	.	4B-	4d	16f
.	.	.	.	16a-
.	.	.	.	16g
.	.	.	.	16f
4E-	4E-	4e-	8g	4ff
.	.	.	8e-	.
4r	4D	4r	[4b-	16r
.	.	.	.	16ff
.	.	.	.	16gg
.	.	.	.	16ff
=43	=43	=43	=43	=43
2r	4C	2f	4b-]	16ee-
.	.	.	.	16ff
.	.	.	.	16dd
.	.	.	.	16ee-
.	4F	.	4a	16cc
.	.	.	.	16ee-
.	.	.	.	16dd
.	.	.	.	16cc
4r	8B-	2B-	4b-	8dd
.	16f	.	.	8b-
.	16e-	.	.	.
[4F	16d	.	4r	8r
.	16c	.	.	.
.	16B-	.	.	8ff
.	16A	.	.	.
=44	=44	=44	=44	=44
4F]	16B-	1r	4ee-	8gg
.	16A	.	.	.
.	16B-	.	.	8gg
.	16c	.	.	.
2E-	16B-	.	4ccc	8gg
.	16d	.	.	.
.	16c	.	.	16aa
.	16B-	.	.	16gg
.	16A	.	4dd	8ff
.	16G	.	.	.
.	16A	.	.	8ff
.	16B-	.	.	.
[4D	16A	.	4bb-	8ff
.	16c	.	.	.
.	16B-	.	.	8b-
.	16A	.	.	.
=45	=45	=45	=45	=45
4D]	16G	1r	4cc	8ee-
.	16F	.	.	.
.	16G	.	.	8ee-
.	16A	.	.	.
2C	16G	.	4aa	8ee-
.	16B-	.	.	.
.	16A	.	.	16gg
.	16G	.	.	16ee-
.	16F	.	4b-	8dd
.	16E-	.	.	.
.	16F	.	.	8dd
.	16G	.	.	.
[4BB-	16F	.	4gg	8dd
.	16A	.	.	.
.	16G	.	.	8g
.	16F	.	.	.
=46	=46	=46	=46	=46
4BB-]	16E-	2r	4g	16cc
.	16D	.	.	16b-
.	16E-	.	.	16cc
.	16F	.	.	16dd
8AA	16E-	.	2f	16cc
.	16F	.	.	16dd
8BB-	16D	.	.	16b-
.	16E-	.	.	16cc
4FF	4F	4r	.	8a
.	.	.	.	16ff
.	.	.	.	16ee
4r	4r	8r	8r	[4ff
.	.	8c	8a	.
=47	=47	=47	=47	=47
1r	[4F	16d	16b-	8ff]
.	.	16c	16a	.
.	.	16d	16b-	8ff
.	.	16e-	16cc	.
.	8F]	16d	16b-	[4ff
.	.	16g	16dd	.
.	8F	16e-	16cc	.
.	.	16d	16b-	.
.	[4F	16e-	16cc	8ff]
.	.	16d	16b-	.
.	.	16e-	16cc	8ff
.	.	16f	16dd	.
.	8F]	16e-	16cc	[4ff
.	.	16g	16ee-	.
.	8F	16f	16dd	.
.	.	16e-	16cc	.
=48	=48	=48	=48	=48
1r	[4F	16d	16b-	8ff]
.	.	16c	16a	.
.	.	16d	16b-	8ff
.	.	16e-	16cc	.
.	8F]	16d	16b-	4ff
.	.	16f	16dd	.
.	8F	16e-	16cc	.
.	.	16d	16b-	.
.	4E-	4c	8a	4r
.	.	.	8f	.
.	4D	[4B-	8r	[4ff
.	.	.	8a-	.
=49	=49	=49	=49	=49
1r	4E-	4B-]	[4g	16ff]
.	.	.	.	16ff
.	.	.	.	16ee-
.	.	.	.	16dd
.	4C	2c	16g]	[4ee-
.	.	.	16g	.
.	.	.	16a	.
.	.	.	16b-	.
.	4F	.	8a	16ee-]
.	.	.	.	16ee-
.	.	.	8f	16dd
.	.	.	.	16cc
.	4BB-	[4B-	8r	[4dd
.	.	.	8f	.
=50	=50	=50	=50	=50
1r	4C	4B-]	[4e-	16dd]
.	.	.	.	16dd
.	.	.	.	16cc
.	.	.	.	16b-
.	4AA	2F	16e-]	[4cc
.	.	.	16e-	.
.	.	.	16d	.
.	.	.	16c	.
.	4BB-	.	[4d	16cc]
.	.	.	.	16cc
.	.	.	.	16b-
.	.	.	.	16a
.	4GG	[4G	16d]	[4b-
.	.	.	16d	.
.	.	.	16e	.
.	.	.	16f	.
=51	=51	=51	=51	=51
1r	4C	4G]	8e	16b-]
.	.	.	.	16b-
.	.	.	8c	16cc
.	.	.	.	16g
.	4FF	2F	16r	[4a
.	.	.	16e	.
.	.	.	16f	.
.	.	.	16c	.
.	2BB-	.	8.d	16a]
.	.	.	.	16a
.	.	.	.	16b-
.	.	.	16c	16a
.	.	4r	16B-	16g
.	.	.	16A	16f
.	.	.	16G	16e
.	.	.	16F	16d
=52	=52	=52	=52	=52
1r	4C	4E	4r	8c
.	.	.	.	16cc
.	.	.	.	16b
.	8r	8r	8r	[4cc
.	8C	8G	8e	.
.	[4C	16A	16f	8cc]
.	.	16G	16e	.
.	.	16A	16f	8cc
.	.	16B-	16g	.
.	8C]	16A	16f	[4cc
.	.	16c	16a	.
.	8C	16B-	16g	.
.	.	16A	16f	.
=53	=53	=53	=53	=53
1r	[4C	16B-	16g	8cc]
.	.	16A	16f	.
.	.	16B-	16g	8cc
.	.	16c	16a	.
.	8C]	16B-	16g	[4cc
.	.	16d	16b-	.
.	8C	16c	16a	.
.	.	16B-	16g	.
.	[4C	16A	16f	8cc]
.	.	16G	16e	.
.	.	16A	16f	8cc
.	.	16B-	16g	.
.	8C]	16A	16f	[4cc
.	.	16c	16a	.
.	8C	16B-	16g	.
.	.	16A	16f	.
=54	=54	=54	=54	=54
1r	4C	4G	8e	4cc]
.	.	.	8c	.
.	4AA	2F	2f	8r
.	.	.	.	8cc
.	4BB-	.	.	16dd
.	.	.	.	16cc
.	.	.	.	16dd
.	.	.	.	16ee
.	4GG	4G	8r	16ff
.	.	.	.	16dd
.	.	.	8b-	16gg
.	.	.	.	16ff
=55	=55	=55	=55	=55
4r	4C	4c	4g	8ee
.	.	.	.	8cc
4AA	16r	4r	4f	2ff
.	16c	.	.	.
.	16d	.	.	.
.	16c	.	.	.
4GG	16B-	2r	2g	.
.	16c	.	.	.
.	16A	.	.	.
.	16B-	.	.	.
4C	16G	.	.	[4ee
.	16B-	.	.	.
.	16A	.	.	.
.	16G	.	.	.
=56	=56	=56	=56	=56
4FF	16A	1r	2f	4ee]
.	16B-	.	.	.
.	16G	.	.	.
.	16A	.	.	.
4BB-	16F	.	.	2dd
.	16A	.	.	.
.	16G	.	.	.
.	16F	.	.	.
4EE	16G	.	2e	.
.	16A	.	.	.
.	16F	.	.	.
.	16G	.	.	.
4AA	16E	.	.	4cc#
.	16G	.	.	.
.	16F	.	.	.
.	16E	.	.	.
=57	=57	=57	=57	=57
4DD	8F	2r	8d	[4dd
.	8D	.	8f	.
4r	[4AA	.	[4e	16dd]
.	.	.	.	16cc
.	.	.	.	16dd
.	.	.	.	16b
2r	4AA]	2A	16e]	[4cc
.	.	.	16f	.
.	.	.	16g	.
.	.	.	16e	.
.	4D	.	[4f	16cc]
.	.	.	.	16b
.	.	.	.	16cc
.	.	.	.	16a
=58	=58	=58	=58	=58
1r	4GG	2.G	4f]	8b
.	.	.	.	8g
.	4C	.	16e	[4cc
.	.	.	16d	.
.	.	.	16e	.
.	.	.	16c	.
.	4GG	.	[4d	16cc]
.	.	.	.	16b
.	.	.	.	16cc
.	.	.	.	16a
.	4GG#	[4E	16d]	[4b
.	.	.	16c	.
.	.	.	16d	.
.	.	.	16B	.
=59	=59	=59	=59	=59
1r	4AA	4E]	[4c	16b]
.	.	.	.	16a
.	.	.	.	16b
.	.	.	.	16g#
.	4r	4A	16c]	[4a
.	.	.	16B	.
.	.	.	16c	.
.	.	.	16A	.
.	4E	4r	4B	8a]
.	.	.	.	8g#
.	16r	[4A	4r	4r
.	16E	.	.	.
.	16F	.	.	.
.	16E	.	.	.
=60	=60	=60	=60	=60
1r	16D	4A]	2ee	1r
.	16E	.	.	.
.	16C	.	.	.
.	16D	.	.	.
.	16BB	4G#	.	.
.	16D	.	.	.
.	16C	.	.	.
.	16BB	.	.	.
.	8C	4A	2a	.
.	8AA	.	.	.
.	8r	[4e	.	.
.	8E	.	.	.
=61	=61	=61	=61	=61
1r	8F	4e]	4dd	1r
.	8F	.	.	.
.	8F	2d	4bb	.
.	16G	.	.	.
.	16F	.	.	.
.	8E	.	4cc	.
.	8E	.	.	.
.	8E	[4c	4aa	.
.	8AA	.	.	.
=62	=62	=62	=62	=62
1r	8D	4c]	4b	2r
.	8D	.	.	.
.	8D	4B	4gg#	.
.	16E	.	.	.
.	16D	.	.	.
.	8C	2A	8a	[4aa
.	8AA	.	8cc	.
.	[4E	.	[4b	16aa]
.	.	.	.	16gg
.	.	.	.	16aa
.	.	.	.	16ff#
=63	=63	=63	=63	=63
1r	4E]	2e	16b]	[4gg
.	.	.	16cc	.
.	.	.	16dd	.
.	.	.	16b	.
.	4A	.	2cc	16gg]
.	.	.	.	16ff#
.	.	.	.	16gg
.	.	.	.	16ee
.	4D	2d	.	8ff#
.	.	.	.	8dd
.	4G	.	16b	[4gg
.	.	.	16a	.
.	.	.	16b	.
.	.	.	16g	.
=64	=64	=64	=64	=64
1r	4C	4c	[4a	16gg]
.	.	.	.	16ff
.	.	.	.	16gg
.	.	.	.	16ee
.	4D	4A	16a]	2ff
.	.	.	16b	.
.	.	.	16cc	.
.	.	.	16a	.
.	4GG	[4G	8b	.
.	.	.	8g	.
.	4r	16G]	[4cc	4ee
.	.	16F	.	.
.	.	16G	.	.
.	.	16E	.	.
=65	=65	=65	=65	=65
1r	4r	4F	16cc]	[4dd
.	.	.	16b-	.
.	.	.	16cc	.
.	.	.	16a	.
.	4GG	2G	2b-	16dd]
.	.	.	.	16ee
.	.	.	.	16ff
.	.	.	.	16dd
.	4C	.	.	8ee
.	.	.	.	8cc
.	4FF	[4F	16a	[4ff
.	.	.	16g	.
.	.	.	16a	.
.	.	.	16f	.
=66	=66	=66	=66	=66
1r	4C	4F]	[4g	16ff]
.	.	.	.	16ee
.	.	.	.	16ff
.	.	.	.	16dd
.	4C#	2A	16g]	[4ee
.	.	.	16f	.
.	.	.	16g	.
.	.	.	16e	.
.	4D	.	[4f	16ee]
.	.	.	.	16dd
.	.	.	.	16ee
.	.	.	.	16cc#
.	4DD	[4D	16f]	[4dd
.	.	.	16e	.
.	.	.	16f	.
.	.	.	16d	.
=67	=67	=67	=67	=67
1r	2AA	4D]	[4e	16dd]
.	.	.	.	16cc
.	.	.	.	16dd
.	.	.	.	16b-
.	.	2A	16e]	[4cc
.	.	.	16f	.
.	.	.	16g	.
.	.	.	16e	.
.	4D	.	[4f	16cc]
.	.	.	.	16b
.	.	.	.	16cc
.	.	.	.	16a
.	4GG	[4G	16f]	[4b-
.	.	.	16e	.
.	.	.	16f	.
.	.	.	16d	.
=68	=68	=68	=68	=68
2r	4C	4G]	8e	4b-]
.	.	.	8c	.
.	16r	4r	2f	4a
.	16C	.	.	.
.	16D	.	.	.
.	16C	.	.	.
2C	16BB-	2r	.	2g
.	16C	.	.	.
.	16AA	.	.	.
.	16BB-	.	.	.
.	16GG	.	4e	.
.	16BB-	.	.	.
.	16AA	.	.	.
.	16GG	.	.	.
=69	=69	=69	=69	=69
2FF	8AA	1r	4f	4f
.	8FF	.	.	.
.	8r	.	8r	2ccc
.	8C	.	8ee	.
4BB-	8D	.	16ff	.
.	.	.	16ee	.
.	8D	.	16ff	.
.	.	.	16gg	.
4G	8D	.	16ff	[4bb-
.	.	.	16aa	.
.	16E	.	16gg	.
.	16D	.	16ff	.
=70	=70	=70	=70	=70
4AA	8C	1r	16ee	4bb-]
.	.	.	16dd	.
.	8C	.	16ee	.
.	.	.	16ff	.
4F	8C	.	16ee	2aa
.	.	.	16gg	.
.	8FF	.	16ff	.
.	.	.	16ee	.
4GG	8BB-	.	16dd	.
.	.	.	16cc	.
.	8BB-	.	16dd	.
.	.	.	16ee	.
4E	8BB-	.	16dd	[4gg
.	.	.	16ff	.
.	16C	.	16ee	.
.	16BB-	.	16dd	.
=71	=71	=71	=71	=71
4FF	8AA	1r	16cc	4gg]
.	.	.	16b-	.
.	8AA	.	16cc	.
.	.	.	16dd	.
4D	8AA	.	16cc	2ff
.	.	.	16ee	.
.	8DD	.	16dd	.
.	.	.	16cc	.
4EE	8GG	.	16b-	.
.	.	.	16a	.
.	8GG	.	16b-	.
.	.	.	16cc	.
4C	8GG	.	16b-	[4ee
.	.	.	16dd	.
.	16AA	.	16cc	.
.	16GG	.	16b-	.
=72	=72	=72	=72	=72
4DD	16FF	1r	16a	4ee]
.	16EE	.	16g	.
.	16FF	.	16a	.
.	16GG	.	16b-	.
4BB-	16FF	.	16a	2dd
.	16AA	.	16cc	.
.	16GG	.	16b-	.
.	16FF	.	16a	.
4CC	16EE	.	16g	.
.	16DD	.	16f	.
.	16EE	.	16g	.
.	16FF	.	16a	.
4C	16EE	.	16g	[4cc
.	16GG	.	16b-	.
.	16FF	.	16a	.
.	16EE	.	16g	.
=73	=73	=73	=73	=73
4D	16DD	2r	16f	4cc]
.	16CC	.	16e	.
.	16DD	.	16f	.
.	16EE	.	16g	.
4GG	16DD	.	16f	2b-
.	16FF	.	16a	.
.	16EE	.	16g	.
.	16DD	.	16f	.
[2CC	8CC	4r	8e	.
.	16C	.	8c	.
.	16BB	.	.	.
.	[4C	8r	4r	8r
.	.	8E	.	8cc
=74	=74	=74	=74	=74
1CC_	4C]	16F	4b-	8dd
.	.	16D	.	.
.	.	16F	.	8dd
.	.	16G	.	.
.	2BB-	16F	4gg	8dd
.	.	16A	.	.
.	.	16G	.	16ee
.	.	16F	.	16dd
.	.	16E	4a	8cc
.	.	16D	.	.
.	.	16E	.	8cc
.	.	16F	.	.
.	[4AA	16E	4ff	8cc
.	.	16G	.	.
.	.	16F	.	8f
.	.	16E	.	.
=75	=75	=75	=75	=75
1CC_	4AA]	16D	4g	8b-
.	.	16C	.	.
.	.	16D	.	8b-
.	.	16E	.	.
.	2GG	16D	4ee	8b-
.	.	16F	.	.
.	.	16E	.	16cc
.	.	16D	.	16b-
.	.	16C	4f	16a
.	.	16BB-	.	16g
.	.	16C	.	16a
.	.	16D	.	16b-
.	[4FF	16C	4dd	16a
.	.	16E	.	16cc
.	.	16D	.	16b-
.	.	16C	.	16a
=76	=76	=76	=76	=76
1CC_	4FF]	16BB-	4e	16g
.	.	16AA	.	16f
.	.	16BB-	.	16g
.	.	16C	.	16a
.	2EE	16BB-	4cc	16g
.	.	16D	.	16b-
.	.	16C	.	16a
.	.	16BB-	.	16g
.	.	16AA	4d	16f
.	.	16GG	.	16e
.	.	16AA	.	16f
.	.	16BB-	.	16g
.	4DD	8AA	[4b-	16f
.	.	.	.	16a
.	.	8BB-	.	16g
.	.	.	.	16f
=77	=77	=77	=77	=77
1CC_	4CC	4C	4b-]	8e
.	.	.	.	8c
.	8r	4r	8r	2cc
.	8E	.	8c	.
.	8F	4BB-	8d	.
.	8F	.	8d	.
.	8F	4G	8d	[4b-
.	16G	.	16e	.
.	16F	.	16d	.
=78	=78	=78	=78	=78
1CC_	8E	4AA	8c	4b-]
.	8E	.	8c	.
.	8E	4F	8c	2a
.	16F	.	8F	.
.	16E	.	.	.
.	8D	4GG	8B-	.
.	8D	.	8B-	.
.	8D	4E	8B-	[4g
.	16E	.	16c	.
.	16D	.	16B-	.
=79	=79	=79	=79	=79
1CC_	8C	4FF	8A	4g]
.	8C	.	8A	.
.	8C	4D	8A	2f
.	16D	.	8D	.
.	16C	.	.	.
.	8BB-	4EE	16G	.
.	.	.	16F	.
.	8BB-	.	16G	.
.	.	.	16A	.
.	8BB-	4C	16G	[4e
.	.	.	16B-	.
.	16C	.	16A	.
.	16BB-	.	16G	.
=80	=80	=80	=80	=80
2CC_	8AA	4DD	16F	4e]
.	.	.	16E	.
.	8AA	.	16F	.
.	.	.	16G	.
.	8AA	4BB-	16F	4d
.	.	.	16A	.
.	16BB-	.	16G	.
.	16AA	.	16F	.
4CC]	4GG	4CC	8E	8c
.	.	.	8C	16cc
.	.	.	.	16b
4r	4r	4r	8r	4cc
.	.	.	8G	.
=81	=81	=81	=81	=81
2B	1r	16A-	16f	2dd
.	.	16G	16e	.
.	.	16A-	16f	.
.	.	16B-	16g	.
.	.	16A-	16f	.
.	.	16c	16a-	.
.	.	16B-	16g	.
.	.	16A-	16f	.
2c	.	16G	16e	2cc
.	.	16F	16d	.
.	.	16G	16e	.
.	.	16A-	16f	.
.	.	16B-	16g	.
.	.	16G	16e	.
.	.	16A-	16f	.
.	.	16B-	16g	.
=82	=82	=82	=82	=82
2B	1r	16A-	16f	2dd
.	.	16G	16e	.
.	.	16A-	16f	.
.	.	16B-	16g	.
.	.	16A-	16f	.
.	.	16c	16a-	.
.	.	16B-	16g	.
.	.	16A-	16f	.
2c	.	16G	16e	2cc
.	.	16F	16d	.
.	.	16G	16e	.
.	.	16A-	16f	.
.	.	16B-	16g	.
.	.	16G	16e	.
.	.	16A-	16f	.
.	.	16B-	16g	.
=83	=83	=83	=83	=83
2B	1r	16A-	16f	2dd
.	.	16G	16e	.
.	.	16A-	16f	.
.	.	16B-	16g	.
.	.	16A-	16f	.
.	.	16c	16a-	.
.	.	16B-	16g	.
.	.	16A-	16f	.
4B-	.	4G	8e	4cc
.	.	.	8c	.
8r	.	8r	8r	8r
8A	.	8F	8f	8cc
=84	=84	=84	=84	=84
4B-	1r	4F	4f	16dd
.	.	.	.	16cc
.	.	.	.	16dd
.	.	.	.	16ee
8r	.	8r	8r	16ff
.	.	.	.	16dd
8G	.	8G	8b-	16gg
.	.	.	.	16ff
4c	.	4G	4g	8ee
.	.	.	.	8cc
4r	.	4r	4r	4r
=85	=85	=85	=85	=85
4r	1r	4r	4r	4r
4d-	.	4d- 4g	4b-	2ff
4B	.	4B 4a-	4dd	.
4c	.	4c 4g	8cc	4ee
.	.	.	8b-	.
=86	=86	=86	=86	=86
1F	1r	1c 1f	1a	1ff
==	==	==	==	==
*-	*-	*-	*-	*-
